src/icons/main-dashboard.svg

<?xml version="1.0" encoding="UTF-8"?>
<svg width="14px" height="14px" viewBox="0 0 14 14" version="1.1" xmlns="http://www.w3.org/2000/svg" xmlns:xlink="http://www.w3.org/1999/xlink">
    <!-- Generator: Sketch 59 (86127) - https://sketch.com -->
    <title>HDL/Icon/Standard/dashboard</title>
    <desc>Created with Sketch.</desc>
    <g id="Colors" stroke="none" stroke-width="1" fill="none" fill-rule="evenodd">
        <g id="Main-Icons" transform="translate(-1121.000000, -1299.000000)" fill="#4D5969">
            <g id="dashboard" transform="translate(1100.000000, 1281.000000)">
                <g id="HDL/Icon/Standard/dashboard" transform="translate(21.000000, 18.000000)">
                    <path d="M4.375,3.5 C3.89375,3.5 3.5,3.89375 3.5,4.375 C3.5,4.85625 3.89375,5.25 4.375,5.25 C4.85625,5.25 5.25,4.85625 5.25,4.375 C5.25,3.89375 4.85625,3.5 4.375,3.5 Z M3.5,6.125 C3.01875,6.125 2.625,6.51875 2.625,7 C2.625,7.48125 3.01875,7.875 3.5,7.875 C3.98125,7.875 4.375,7.48125 4.375,7 C4.375,6.51875 3.98125,6.125 3.5,6.125 Z M7,4.375 C7.48125,4.375 7.875,3.98125 7.875,3.5 C7.875,3.01875 7.48125,2.625 7,2.625 C6.51875,2.625 6.125,3.01875 6.125,3.5 C6.125,3.98125 6.51875,4.375 7,4.375 Z M5.25,9.625 C5.25,10.5875 6.0375,11.375 7,11.375 C7.9625,11.375 8.75,10.5875 8.75,9.625 C8.75,9.16125 7,5.25 7,5.25 C7,5.25 5.25,9.16125 5.25,9.625 Z M7,0 C3.1325,0 0,3.1325 0,7 C0,10.8675 3.1325,14 7,14 C10.8675,14 14,10.8675 14,7 C14,3.1325 10.8675,0 7,0 Z M7,12.25 C4.10375,12.25 1.75,9.89625 1.75,7 C1.75,4.10375 4.10375,1.75 7,1.75 C9.89625,1.75 12.25,4.10375 12.25,7 C12.25,9.89625 9.89625,12.25 7,12.25 Z M10.5,4.375 C10.5,3.89375 10.10625,3.5 9.625,3.5 C9.14375,3.5 8.75,3.89375 8.75,4.375 C8.75,4.85625 9.14375,5.25 9.625,5.25 C10.10625,5.25 10.5,4.85625 10.5,4.375 Z M10.5,6.125 C10.01875,6.125 9.625,6.51875 9.625,7 C9.625,7.48125 10.01875,7.875 10.5,7.875 C10.98125,7.875 11.375,7.48125 11.375,7 C11.375,6.51875 10.98125,6.125 10.5,6.125 Z"></path>
                </g>
            </g>
        </g>
    </g>
</svg>

<?xml version="1.0" encoding="utf-8"?>
<!-- Generator: Adobe Illustrator 20.1.0, SVG Export Plug-In . SVG Version: 6.00 Build 0)  -->
<svg version="1.1" id="Layer_1" xmlns="http://www.w3.org/2000/svg" xmlns:xlink="http://www.w3.org/1999/xlink" x="0px" y="0px"
	 viewBox="0 0 14 14" style="enable-background:new 0 0 14 14;" xml:space="preserve">
<style type="text/css">
	.st0{fill:#4D5969;}
</style>
<title>HDL/Icon/Standard/dashboard</title>
<desc>Created with Sketch.</desc>
<g id="Colors">
	<g id="Main-Icons" transform="translate(-1121.000000, -1299.000000)">
		<g id="dashboard" transform="translate(1100.000000, 1281.000000)">
			<g id="HDL_x2F_Icon_x2F_Standard_x2F_dashboard" transform="translate(21.000000, 18.000000)">
				<path class="st0" d="M4.4,3.5c-0.5,0-0.9,0.4-0.9,0.9s0.4,0.9,0.9,0.9s0.9-0.4,0.9-0.9S4.9,3.5,4.4,3.5z M3.5,6.1
					C3,6.1,2.6,6.5,2.6,7S3,7.9,3.5,7.9S4.4,7.5,4.4,7S4,6.1,3.5,6.1z M7,4.4c0.5,0,0.9-0.4,0.9-0.9S7.5,2.6,7,2.6S6.1,3,6.1,3.5
					S6.5,4.4,7,4.4z M5.2,9.6c0,1,0.8,1.8,1.8,1.8s1.8-0.8,1.8-1.8C8.8,9.2,7,5.2,7,5.2S5.2,9.2,5.2,9.6z M7,0C3.1,0,0,3.1,0,7
					s3.1,7,7,7s7-3.1,7-7S10.9,0,7,0z M7,12.2c-2.9,0-5.2-2.4-5.2-5.2S4.1,1.8,7,1.8s5.2,2.4,5.2,5.2S9.9,12.2,7,12.2z M10.5,4.4
					c0-0.5-0.4-0.9-0.9-0.9S8.8,3.9,8.8,4.4s0.4,0.9,0.9,0.9S10.5,4.9,10.5,4.4z M10.5,6.1C10,6.1,9.6,6.5,9.6,7s0.4,0.9,0.9,0.9
					s0.9-0.4,0.9-0.9S11,6.1,10.5,6.1z"/>
			</g>
		</g>
	</g>
</g>
</svg>
